icons/file-gif-fill.svg

<svg viewBox="0 0 24 24" fill="currentColor" xmlns="http://www.w3.org/2000/svg"><path d="M16 2L20.9997 7L21 20.9925C21 21.5489 20.5551 22 20.0066 22H3.9934C3.44476 22 3 21.5447 3 21.0082V2.9918C3 2.44405 3.44749 2 3.9985 2H16ZM13 10H12V15H13V10ZM11 10H9C7.89543 10 7 10.8954 7 12V13C7 14.1046 7.89543 15 9 15H10C10.5523 15 11 14.5523 11 14V12H9V13H10V14H9C8.44772 14 8 13.5523 8 13V12C8 11.4477 8.44772 11 9 11H11V10ZM17 10H14V15H15V13H17V12H15V11H17V10Z"/></svg>

<svg xmlns="http://www.w3.org/2000/svg" viewBox="0 0 24 24">
    <g>
        <path fill="none" d="M0 0L24 0 24 24 0 24z"/>
        <path d="M16 2l5 5v13.993c0 .556-.445 1.007-.993 1.007H3.993C3.445 22 3 21.545 3 21.008V2.992C3 2.444 3.447 2 3.999 2H16zm-3 8h-1v5h1v-5zm-2 0H9c-1.105 0-2 .895-2 2v1c0 1.105.895 2 2 2h1c.552 0 1-.448 1-1v-2H9v1h1v1H9c-.552 0-1-.448-1-1v-1c0-.552.448-1 1-1h2v-1zm6 0h-3v5h1v-2h2v-1h-2v-1h2v-1z"/>
    </g>
</svg>
